X:25
T:Over the Waterfall
M:2/4
K:D
L:1/16
de|f2af gfe2|d2B2 A2de|f2af gfe2|d4 d3e|
f2af gfe2|d2B2 A3B|=c2c B2A2|1 G6 :|2 G4 G4 |
|:A4 B4|ABAG F2G2|A2d2 cdec|d2A2 F2G2|
A4 B4|ABAG F2G2|A2A2 GFE2|1 D4 D4 :|2 D6 ||
